X: 5764
T: Cailin Na Gruige Donna
R: waltz
M: 3/4
K: Gmajor
z G|G4 ABc d4 B|g2 f4 d e4 A|A2 d4 c Bc A3|G G8 z2 G|
G4 ABc d4 B|g2 f4 d e4 A|A2 d4 c Bc A3|G G8 z g2|
g4 fg a4 fa|g2 f4 d e4 A|A2 d4 c Bc A4|G G8 z G2|
G4 ABc d4 B|g2 f4 d e4 A|A2 d4 c AB G4-|G8 z2||

